storage/app/icons/phosphoricons/light/skull-light.svg

<svg xmlns="http://www.w3.org/2000/svg" fill="currentColor" viewBox="0 0 256 256"><path d="M92 106a26 26 0 1 0 26 26 26 26 0 0 0-26-26m0 40a14 14 0 1 1 14-14 14 14 0 0 1-14 14m72-40a26 26 0 1 0 26 26 26 26 0 0 0-26-26m0 40a14 14 0 1 1 14-14 14 14 0 0 1-14 14M128 18C71.76 18 26 62 26 116c0 33.77 18.3 65.31 48 83.15V216a14 14 0 0 0 14 14h80a14 14 0 0 0 14-14v-16.85c29.7-17.84 48-49.38 48-83.15 0-54-45.76-98-102-98m45.09 172.44a6 6 0 0 0-3.09 5.25V216a2 2 0 0 1-2 2h-18v-26a6 6 0 0 0-12 0v26h-20v-26a6 6 0 0 0-12 0v26H88a2 2 0 0 1-2-2v-20.31a6 6 0 0 0-3.09-5.25C55.21 175.09 38 146.56 38 116c0-47.42 40.37-86 90-86s90 38.58 90 86c0 30.56-17.21 59.09-44.91 74.44"/></svg>

<svg xmlns="http://www.w3.org/2000/svg" viewBox="0 0 256 256" fill="currentColor"><path d="M92,106a26,26,0,1,0,26,26A26,26,0,0,0,92,106Zm0,40a14,14,0,1,1,14-14A14,14,0,0,1,92,146Zm72-40a26,26,0,1,0,26,26A26,26,0,0,0,164,106Zm0,40a14,14,0,1,1,14-14A14,14,0,0,1,164,146ZM128,18C71.76,18,26,62,26,116c0,33.77,18.3,65.31,48,83.15V216a14,14,0,0,0,14,14h80a14,14,0,0,0,14-14V199.15c29.7-17.84,48-49.38,48-83.15C230,62,184.24,18,128,18Zm45.09,172.44a6,6,0,0,0-3.09,5.25V216a2,2,0,0,1-2,2H150V192a6,6,0,0,0-12,0v26H118V192a6,6,0,0,0-12,0v26H88a2,2,0,0,1-2-2V195.69a6,6,0,0,0-3.09-5.25C55.21,175.09,38,146.56,38,116c0-47.42,40.37-86,90-86s90,38.58,90,86C218,146.56,200.79,175.09,173.09,190.44Z"/></svg>
